X:732
T:Mrs. Small
R:Reel
C:R. Petrie
B:The Athole Collection
M:C|
L:1/8
K:D
A|F2 DA dfaf|gefd ceeg|fdAF GeEg|fdeg fdd:|
A|FADd BDAF|GEFD CEEG|FADd BDAd|BGEA FDDA|
FDdD cDBD|ADFD CEEG|Ffaf gecd|BGEA FDD||

